src/images/crypto-icon-svg/qtum.svg

<svg xmlns="http://www.w3.org/2000/svg" width="32" height="32" viewBox="0 0 32 32">
  <g fill="none" fill-rule="evenodd">
    <circle cx="16" cy="16" r="16" fill="#2E9AD0"/>
    <path fill="#FFF" fill-rule="nonzero" d="M25.313057,23.6361289 L23.3403333,21.8804758 L19.3482508,24.8746057 C19.3945234,24.9759206 19.420354,25.0888526 19.420354,25.2079208 C19.420354,25.6453741 19.0716908,26 18.6415929,26 C18.2614033,26 17.9448457,25.7229001 17.8764987,25.3564356 L13.5659792,25.3564356 C13.4976322,25.7229001 13.1810745,26 12.800885,26 C12.3707871,26 12.0221239,25.6453741 12.0221239,25.2079208 C12.0221239,25.0898049 12.0475429,24.9777275 12.0931207,24.8770389 L8.54693276,22.2368658 C8.40954582,22.3605574 8.22888085,22.4356436 8.03097345,22.4356436 C7.60087559,22.4356436 7.25221239,22.0810176 7.25221239,21.6435644 C7.25221239,21.343735 7.41600374,21.0828155 7.65754452,20.9483191 L6.35453705,16.7883775 C6.32960352,16.7908263 6.30432615,16.7920792 6.27876106,16.7920792 C5.8486632,16.7920792 5.5,16.4374533 5.5,16 C5.5,15.5625467 5.8486632,15.2079208 6.27876106,15.2079208 C6.31320622,15.2079208 6.34712906,15.2101953 6.38039233,15.2146048 L7.66105818,11.0536255 C7.41759355,10.91971 7.25221239,10.6577166 7.25221239,10.3564356 C7.25221239,9.91898238 7.60087559,9.56435644 8.03097345,9.56435644 C8.23272225,9.56435644 8.41655275,9.64238576 8.55488372,9.77039148 L12.1276003,7.19038199 C12.0605406,7.07336768 12.0221239,6.93728652 12.0221239,6.79207921 C12.0221239,6.35462594 12.3707871,6 12.800885,6 C13.1810745,6 13.4976322,6.2770999 13.5659792,6.64356436 L17.8764987,6.64356436 C17.9448457,6.2770999 18.2614033,6 18.6415929,6 C19.0716908,6 19.420354,6.35462594 19.420354,6.79207921 C19.420354,6.9294971 19.3859484,7.0587417 19.3254207,7.17138777 L22.8758187,9.7815146 C23.0154076,9.64692032 23.2039762,9.56435644 23.4115044,9.56435644 C23.8416023,9.56435644 24.1902655,9.91898238 24.1902655,10.3564356 C24.1902655,10.6345827 24.0493068,10.8792441 23.8360823,11.0205522 L25.1117753,15.2096547 C25.1289432,15.2085048 25.1462629,15.2079208 25.1637168,15.2079208 C25.5938147,15.2079208 25.9424779,15.5625467 25.9424779,16 C25.9424779,16.4374533 25.5938147,16.7920792 25.1637168,16.7920792 C25.1550379,16.7920792 25.1463921,16.7919348 25.1377817,16.7916482 L23.6405023,21.6213705 L25.5579568,23.327836 C25.7640326,23.1423186 26.0350152,23.029703 26.3318584,23.029703 C26.9770052,23.029703 27.5,23.5616419 27.5,24.2178218 C27.5,24.8740017 26.9770052,25.4059406 26.3318584,25.4059406 C25.6867116,25.4059406 25.1637168,24.8740017 25.1637168,24.2178218 C25.1637168,24.0064991 25.2179598,23.8080621 25.313057,23.6361289 Z M18.7077625,24.4186606 L20.1945948,21.0700855 C20.0749054,20.9710042 19.9847102,20.8364801 19.9394713,20.6822393 L16.4888846,21.1836104 C16.463655,21.3340864 16.3966954,21.470091 16.3005466,21.5788691 L18.3484999,24.4738539 C18.4389702,24.4364481 18.5379156,24.4158416 18.6415929,24.4158416 C18.6638805,24.4158416 18.6859494,24.4167939 18.7077625,24.4186606 Z M19.1007956,24.5681282 L22.9696691,21.6664072 L21.302249,20.9395775 C21.1598191,21.1269032 20.9366794,21.2475248 20.6858407,21.2475248 C20.6389809,21.2475248 20.5930877,21.2433152 20.5485068,21.2352476 L19.0763857,24.5506907 C19.084636,24.5563481 19.092774,24.562162 19.1007956,24.5681282 Z M18.0358816,24.710036 L15.976023,21.7982219 C15.8961907,21.8263211 15.8104673,21.8415842 15.7212389,21.8415842 C15.6320106,21.8415842 15.5462872,21.8263211 15.4664549,21.7982219 L13.4065963,24.710036 C13.4652249,24.7837303 13.5111167,24.8683383 13.5408658,24.960396 L17.9016121,24.960396 C17.9313612,24.8683383 17.9772529,24.7837303 18.0358816,24.710036 Z M24.7641172,16.6799944 C24.5369921,16.5416225 24.3849558,16.2888699 24.3849558,16 C24.3849558,15.7206071 24.52718,15.4750005 24.7420085,15.3339908 L23.5358966,11.3733782 L23.2662264,15.2476119 C23.5767564,15.3517763 23.800885,15.6492665 23.800885,16 C23.800885,16.3485573 23.579529,16.6445301 23.2719964,16.7504269 L23.5377432,20.6358666 L24.7641172,16.6799944 Z M22.5104967,15.4028271 L20.9255221,12.2984106 C20.8500166,12.3232266 20.769468,12.3366337 20.6858407,12.3366337 C20.6310398,12.3366337 20.5775609,12.3308765 20.5259568,12.3199243 L19.1343573,15.3866204 C19.3089292,15.531875 19.420354,15.7527026 19.420354,16 C19.420354,16.2515569 19.3050577,16.4757244 19.1252807,16.6208179 L20.5597195,19.6737005 C20.6007708,19.6669012 20.6428999,19.6633663 20.6858407,19.6633663 C20.7491916,19.6633663 20.8107757,19.6710601 20.869739,19.6855792 L22.4885049,16.5769066 C22.3375918,16.4324471 22.2433628,16.2274159 22.2433628,16 C22.2433628,15.7617299 22.3468012,15.5480323 22.5104967,15.4028271 Z M22.8836701,16.7795985 C22.8654549,16.7762741 22.8474595,16.7723056 22.8297075,16.7677168 L21.2128015,19.8722392 C21.3675962,20.0170056 21.4646018,20.2247034 21.4646018,20.4554455 C21.4646018,20.4962892 21.4615623,20.5364108 21.455701,20.5755891 L23.1951585,21.3338199 L22.8836701,16.7795985 Z M22.8776909,15.2215174 L23.1640565,11.1076929 C23.0125512,11.0560911 22.881814,10.9584054 22.7879367,10.8310029 L21.4497836,11.3899952 C21.4595049,11.4399839 21.4646018,11.4916638 21.4646018,11.5445545 C21.4646018,11.7534727 21.3850782,11.9434997 21.2551395,12.0850291 L22.8586307,15.2254053 C22.864956,15.2240309 22.8713097,15.2227345 22.8776909,15.2215174 Z M18.7696375,16.7814239 C18.727979,16.788433 18.6852046,16.7920792 18.6415929,16.7920792 C18.5700626,16.7920792 18.5007847,16.7822704 18.4349885,16.7639031 L16.3124049,20.5338702 C16.3749806,20.6080181 16.424304,20.694073 16.4566393,20.7882353 L19.9253201,20.2842351 C19.964605,20.1028943 20.0649873,19.9448694 20.2033934,19.8336286 L18.7696375,16.7814239 Z M18.7808636,15.220551 L20.1768928,12.1440931 C20.038918,12.0228183 19.9432459,11.8531023 19.9154261,11.6609318 L16.4403671,11.1560048 C16.4016908,11.2503815 16.345579,11.3355162 16.2761237,11.4072472 L18.415012,15.2419686 C18.4867088,15.2198274 18.5627838,15.2079208 18.6415929,15.2079208 C18.6891316,15.2079208 18.7356755,15.2122532 18.7808636,15.220551 Z M18.0978667,16.5670569 C17.9528653,16.4232027 17.8628319,16.2222954 17.8628319,16 C17.8628319,15.7856334 17.9465572,15.5911563 18.0825624,15.4485521 L15.9422193,11.6112226 C15.8721658,11.6322687 15.7979993,11.6435644 15.7212389,11.6435644 C15.6713908,11.6435644 15.6226366,11.6388008 15.5753923,11.6296968 L13.3681152,15.457281 C13.499278,15.5990427 13.579646,15.7899754 13.579646,16 C13.579646,16.2181651 13.4929272,16.4157296 13.3526365,16.5589796 L15.5214655,20.2837292 C15.5852196,20.2665686 15.6521795,20.2574257 15.7212389,20.2574257 C15.8163902,20.2574257 15.9075557,20.2747823 15.9918421,20.3065526 L18.0978667,16.5670569 Z M6.72059187,16.6523469 L7.96262991,20.6176394 L8.25580136,16.7743637 C7.90473115,16.6975544 7.64159292,16.3800324 7.64159292,16 C7.64159292,15.6152884 7.91125088,15.294636 8.2688088,15.222909 L7.96589538,11.3888534 L6.7425374,15.3636351 C6.93366831,15.5079716 7.05752212,15.7392746 7.05752212,16 C7.05752212,16.2705746 6.92413413,16.5094619 6.72059187,16.6523469 Z M10.6092525,19.6775319 C10.6569765,19.6682339 10.7062479,19.6633663 10.7566372,19.6633663 C10.825735,19.6633663 10.892731,19.6725194 10.956517,19.6896984 L12.327422,16.6289305 C12.1418035,16.4841576 12.0221239,16.2562942 12.0221239,16 C12.0221239,15.7523793 12.1338402,15.5312975 12.3088057,15.386051 L10.9166887,12.3198887 C10.8650328,12.330864 10.8114975,12.3366337 10.7566372,12.3366337 C10.7116152,12.3366337 10.6674857,12.3327478 10.6245549,12.3252879 L8.94644137,15.4159781 C9.10174447,15.5607793 9.19911504,15.7688242 9.19911504,16 C9.19911504,16.2249337 9.1069318,16.4279687 8.95889417,16.5721548 L10.6092525,19.6775319 Z M10.9328,21.2271739 C10.8761929,21.2404879 10.817223,21.2475248 10.7566372,21.2475248 C10.5129374,21.2475248 10.2953824,21.1336713 10.1525845,20.9554081 L8.80357246,21.5434434 C8.80763899,21.5762348 8.80973451,21.6096507 8.80973451,21.6435644 C8.80973451,21.7364794 8.79400503,21.8256577 8.76510668,21.908495 L12.3395602,24.5697121 C12.3500796,24.5618327 12.3608008,24.5542159 12.3717145,24.5468713 L10.9328,21.2271739 Z M9.98999495,20.5954027 C9.98203162,20.5499733 9.97787611,20.503203 9.97787611,20.4554455 C9.97787611,20.211362 10.0864236,19.9930646 10.2570988,19.8477672 L8.64351298,16.8115825 L8.33070506,20.9122788 C8.46247571,20.9682154 8.5759035,21.059922 8.65926102,21.1754706 L9.98999495,20.5954027 Z M11.51963,20.2960795 L14.9851632,20.7902103 C15.0259132,20.6705221 15.0940862,20.5638585 15.182038,20.4779944 L13.0177091,16.7609732 C12.9488807,16.7812254 12.876129,16.7920792 12.800885,16.7920792 C12.7618733,16.7920792 12.7235316,16.7891616 12.6860593,16.7835292 L11.2969246,19.8849978 C11.4081206,19.9939731 11.4875338,20.1362669 11.51963,20.2960795 Z M11.4997205,20.693153 C11.4575704,20.8295959 11.3800966,20.9501251 11.278201,21.0436522 L12.7413931,24.4181183 C12.7610294,24.4166096 12.780869,24.4158416 12.800885,24.4158416 C12.9045623,24.4158416 13.0035077,24.4364481 13.0939779,24.4738539 L15.1419313,21.5788691 C15.0462215,21.4705877 14.979435,21.3353278 14.9539415,21.1856708 L11.4997205,20.693153 Z M9.99656708,11.3712777 L8.66577976,10.815357 C8.58226865,10.9346441 8.46706853,11.0293885 8.33267353,11.0868823 L8.65273358,15.1379675 L10.2691247,12.1622656 C10.0915388,12.0170899 9.97787611,11.7943229 9.97787611,11.5445545 C9.97787611,11.485034 9.9843308,11.4270468 9.99656708,11.3712777 Z M10.9469202,10.7762895 L12.3219587,7.53573756 L8.76860696,10.1017628 C8.79527288,10.1816877 8.80973451,10.2673439 8.80973451,10.3564356 C8.80973451,10.3864856 8.80808927,10.4161448 8.80488539,10.445325 L10.1751048,11.017718 C10.3177336,10.8549661 10.5254176,10.7524752 10.7566372,10.7524752 C10.8222783,10.7524752 10.8860226,10.7607354 10.9469202,10.7762895 Z M11.5286571,11.6492378 C11.5030868,11.8462135 11.406352,12.0203641 11.2655851,12.1440931 L12.6616143,15.220551 C12.7068024,15.2122532 12.7533462,15.2079208 12.800885,15.2079208 C12.8841793,15.2079208 12.9644195,15.2212213 13.0396643,15.245848 L15.2222547,11.4596348 C15.1262589,11.3780658 15.0498703,11.2734236 15.0013287,11.1540892 L11.5286571,11.6492378 Z M11.2899449,10.9673501 C11.3734324,11.0471801 11.4395977,11.1455368 11.4820937,11.2559648 L14.9474075,10.7618653 C14.963901,10.6128974 15.0210189,10.4764377 15.1072269,10.3642178 L13.1168183,7.51626555 C13.020262,7.55990726 12.9133579,7.58415842 12.800885,7.58415842 C12.7759665,7.58415842 12.7513213,7.58296805 12.7270015,7.58064019 L11.2899449,10.9673501 Z M20.6123224,10.7559586 C20.6365237,10.7536537 20.6610469,10.7524752 20.6858407,10.7524752 C20.9240775,10.7524752 21.1373285,10.8612814 21.280178,11.0327013 L22.6399536,10.464671 C22.6351994,10.4292832 22.6327434,10.3931511 22.6327434,10.3564356 C22.6327434,10.2733099 22.645333,10.1931749 22.6686788,10.1178956 L19.1409252,7.5244161 L20.6123224,10.7559586 Z M19.9563009,11.2668105 C20.0127402,11.1135185 20.1145452,10.9827622 20.2450929,10.8914487 L18.736405,7.57834731 C18.7053284,7.58218373 18.6736874,7.58415842 18.6415929,7.58415842 C18.5291199,7.58415842 18.4222159,7.55990726 18.3256596,7.51626555 L16.335251,10.3642178 C16.4218563,10.4769549 16.4791027,10.6141556 16.4952958,10.7639256 L19.9563009,11.2668105 Z M18.0202671,7.26967383 C17.9690722,7.20088216 17.9286667,7.12332371 17.9016121,7.03960396 L13.5408658,7.03960396 C13.5138112,7.12332371 13.4734056,7.20088216 13.4222108,7.26967383 L15.4160535,10.1225397 C15.5097715,10.0818976 15.6129228,10.0594059 15.7212389,10.0594059 C15.8295551,10.0594059 15.9327064,10.0818976 16.0264244,10.1225397 L18.0202671,7.26967383 Z"/>
  </g>
</svg>

<svg xmlns="http://www.w3.org/2000/svg" width="32" height="32"><g fill="none" fill-rule="evenodd"><circle cx="16" cy="16" r="16" fill="#2E9AD0"/><path fill="#FFF" fill-rule="nonzero" d="M25.313 23.636L23.34 21.88l-3.992 2.995a.8.8 0 0 1 .072.333.786.786 0 0 1-.778.792.783.783 0 0 1-.766-.644h-4.31a.783.783 0 0 1-.765.644.786.786 0 0 1-.779-.792.8.8 0 0 1 .071-.331l-3.546-2.64a.768.768 0 0 1-.516.199.786.786 0 0 1-.779-.792c0-.3.164-.561.406-.696l-1.303-4.16A.786.786 0 0 1 5.5 16a.786.786 0 0 1 .88-.785l1.281-4.161a.794.794 0 0 1-.409-.698c0-.437.349-.792.779-.792.202 0 .386.078.524.206l3.573-2.58a.799.799 0 0 1-.106-.398c0-.437.349-.792.779-.792.38 0 .697.277.765.644h4.31A.783.783 0 0 1 18.642 6c.43 0 .778.355.778.792a.8.8 0 0 1-.095.38l3.55 2.61a.77.77 0 0 1 .537-.218c.43 0 .778.355.778.792a.795.795 0 0 1-.354.665l1.276 4.189a.777.777 0 0 1 .83.79.786.786 0 0 1-.804.792l-1.497 4.83 1.917 1.706c.206-.186.477-.298.774-.298.645 0 1.168.532 1.168 1.188 0 .656-.523 1.188-1.168 1.188a1.178 1.178 0 0 1-1.168-1.188c0-.212.054-.41.15-.582zm-6.605.783l1.487-3.349a.794.794 0 0 1-.256-.388l-3.45.502a.795.795 0 0 1-.188.395l2.047 2.895a.765.765 0 0 1 .36-.055zm.393.15l3.869-2.903-1.668-.726a.773.773 0 0 1-.753.295l-1.473 3.316a.78.78 0 0 1 .025.017zm-1.065.141l-2.06-2.912a.766.766 0 0 1-.51 0l-2.06 2.912a.795.795 0 0 1 .135.25h4.36a.795.795 0 0 1 .135-.25zm6.728-8.03a.794.794 0 0 1-.379-.68c0-.28.142-.525.357-.666l-1.206-3.96-.27 3.874c.31.104.535.401.535.752a.791.791 0 0 1-.529.75l.266 3.886 1.226-3.956zm-2.254-1.277l-1.584-3.105a.766.766 0 0 1-.4.022l-1.392 3.067a.796.796 0 0 1 .286.613.796.796 0 0 1-.295.62l1.435 3.054a.771.771 0 0 1 .31.012l1.619-3.11a.796.796 0 0 1-.246-.576c0-.238.104-.452.267-.597zm.374 1.377a.763.763 0 0 1-.054-.012l-1.617 3.104a.796.796 0 0 1 .243.704l1.74.758-.312-4.554zm-.006-1.558l.286-4.114a.781.781 0 0 1-.376-.277l-1.338.559a.81.81 0 0 1-.195.695l1.604 3.14a.763.763 0 0 1 .019-.003zm-4.108 1.56a.771.771 0 0 1-.335-.018l-2.123 3.77c.063.074.112.16.145.254l3.468-.504c.04-.181.14-.34.278-.45L18.77 16.78zm.01-1.561l1.397-3.077a.795.795 0 0 1-.262-.483l-3.475-.505a.794.794 0 0 1-.164.251l2.139 3.835a.767.767 0 0 1 .366-.021zm-.682 1.346a.796.796 0 0 1-.235-.567c0-.214.084-.409.22-.551l-2.14-3.838a.767.767 0 0 1-.368.019l-2.207 3.827a.797.797 0 0 1 .212.543.796.796 0 0 1-.227.559l2.168 3.725a.768.768 0 0 1 .47.023l2.107-3.74zm-11.377.085l1.242 3.966.293-3.844A.79.79 0 0 1 7.642 16c0-.385.27-.705.627-.777l-.303-3.834-1.223 3.975a.795.795 0 0 1 .315.636c0 .27-.134.51-.337.652zm3.888 3.026a.77.77 0 0 1 .348.012l1.37-3.061a.796.796 0 0 1-.305-.629c0-.248.112-.469.287-.614l-1.392-3.066a.77.77 0 0 1-.292.005l-1.679 3.091A.796.796 0 0 1 9.2 16a.796.796 0 0 1-.24.572l1.65 3.106zm.324 1.55a.769.769 0 0 1-.78-.273l-1.35.588a.813.813 0 0 1-.038.365l3.575 2.662a.78.78 0 0 1 .032-.023l-1.44-3.32zm-.943-.633a.796.796 0 0 1 .267-.748l-1.613-3.035-.313 4.1a.784.784 0 0 1 .328.263l1.331-.58zm1.53-.299l3.465.494a.794.794 0 0 1 .197-.312l-2.164-3.717a.767.767 0 0 1-.332.023l-1.39 3.101c.112.109.192.251.224.411zm-.02.397a.794.794 0 0 1-.222.35l1.463 3.375a.776.776 0 0 1 .353.056l2.048-2.895a.795.795 0 0 1-.188-.393l-3.454-.493zm-1.503-9.322l-1.331-.556a.784.784 0 0 1-.333.272l.32 4.051 1.616-2.976a.796.796 0 0 1-.272-.79zm.95-.595l1.375-3.24-3.553 2.566a.803.803 0 0 1 .036.343l1.37.573a.771.771 0 0 1 .772-.242zm.582.873a.795.795 0 0 1-.263.495l1.396 3.077a.77.77 0 0 1 .378.025l2.182-3.786a.794.794 0 0 1-.22-.306l-3.473.495zm-.24-.682c.084.08.15.179.193.289l3.465-.494a.796.796 0 0 1 .16-.398l-1.99-2.848a.765.765 0 0 1-.39.065l-1.437 3.386zm9.323-.211a.775.775 0 0 1 .668.277l1.36-.568a.813.813 0 0 1 .029-.347L19.14 7.524l1.471 3.232zm-.656.51a.793.793 0 0 1 .29-.375l-1.51-3.313a.774.774 0 0 1-.41-.062l-1.99 2.848c.086.113.143.25.16.4l3.46.503zM18.02 7.27a.795.795 0 0 1-.118-.23H13.54a.795.795 0 0 1-.119.23l1.994 2.853a.765.765 0 0 1 .61 0L18.02 7.27z"/></g></svg>
